dist/svgs/unicons/line/border-horizontal.svg

<svg xmlns="http://www.w3.org/2000/svg" viewBox="0 0 24 24"><path d="M8 5a1 1 0 10-1-1 1 1 0 001 1zM4 9a1 1 0 10-1-1 1 1 0 001 1zm8 0a1 1 0 10-1-1 1 1 0 001 1zM4 5a1 1 0 10-1-1 1 1 0 001 1zm12 0a1 1 0 10-1-1 1 1 0 001 1zm-4 0a1 1 0 10-1-1 1 1 0 001 1zm8 0a1 1 0 10-1-1 1 1 0 001 1zM4 19a1 1 0 101 1 1 1 0 00-1-1zm16 0a1 1 0 101 1 1 1 0 00-1-1zm0-4a1 1 0 101 1 1 1 0 00-1-1zm0-4H4a1 1 0 000 2h16a1 1 0 000-2zm-4 8a1 1 0 101 1 1 1 0 00-1-1zM4 15a1 1 0 101 1 1 1 0 00-1-1zm16-8a1 1 0 101 1 1 1 0 00-1-1zM8 19a1 1 0 101 1 1 1 0 00-1-1zm4 0a1 1 0 101 1 1 1 0 00-1-1zm0-4a1 1 0 101 1 1 1 0 00-1-1z"/></svg>

<svg xmlns="http://www.w3.org/2000/svg" viewBox="0 0 24 24"><path d="M8,5A1,1,0,1,0,7,4,1,1,0,0,0,8,5ZM4,9A1,1,0,1,0,3,8,1,1,0,0,0,4,9Zm8,0a1,1,0,1,0-1-1A1,1,0,0,0,12,9ZM4,5A1,1,0,1,0,3,4,1,1,0,0,0,4,5ZM16,5a1,1,0,1,0-1-1A1,1,0,0,0,16,5ZM12,5a1,1,0,1,0-1-1A1,1,0,0,0,12,5Zm8,0a1,1,0,1,0-1-1A1,1,0,0,0,20,5ZM4,19a1,1,0,1,0,1,1A1,1,0,0,0,4,19Zm16,0a1,1,0,1,0,1,1A1,1,0,0,0,20,19Zm0-4a1,1,0,1,0,1,1A1,1,0,0,0,20,15Zm0-4H4a1,1,0,0,0,0,2H20a1,1,0,0,0,0-2Zm-4,8a1,1,0,1,0,1,1A1,1,0,0,0,16,19ZM4,15a1,1,0,1,0,1,1A1,1,0,0,0,4,15ZM20,7a1,1,0,1,0,1,1A1,1,0,0,0,20,7ZM8,19a1,1,0,1,0,1,1A1,1,0,0,0,8,19Zm4,0a1,1,0,1,0,1,1A1,1,0,0,0,12,19Zm0-4a1,1,0,1,0,1,1A1,1,0,0,0,12,15Z"/></svg>
